lib/healthicons/icons/solid/specialties/psychology.svg

<svg fill="none" height="48" viewBox="0 0 48 48" width="48" xmlns="http://www.w3.org/2000/svg"><g fill="#333"><path clip-rule="evenodd" d="m9 6c-1.65685 0-3 1.34315-3 3v30c0 1.6569 1.34315 3 3 3h5.389v-11.238c-3.0438-2.2749-5.389-5.3396-5.389-9.3122 0-3.3019 1.3779-6.4685 3.8307-8.8033 2.4527-2.3348 5.7793-3.64649 9.248-3.64649 2.6488-.00286 5.2663.54567 7.6689 1.60719 1.8935.759 3.5513 1.9669 4.8154 3.5085 1.1544 1.6196 1.7942 3.5214 1.8429 5.4779.0105.4497.0042.8761-.0019 1.2886-.0215 1.4564-.0405 2.739.6915 4.256 0 0 2.1639 1.9467 1.8786 3.5086-.2854 1.5619-3.1033 1.9919-3.1033 1.9919 0 8.4093-10.7007 4.8995-10.7007 4.8995v6.4618h13.8299c1.6569 0 3-1.3431 3-3v-30c0-1.65685-1.3431-3-3-3z" fill-rule="evenodd"/><path d="m26.2691 22.4547c.6441 0 .4399-.189.9719-.5425.5401.3528 1.1776.5377 1.828.5304l2.0662-.7317c.5822-.4671.9819-1.1146 1.1322-1.8342.1502-.7196.042-1.4675-.3067-2.1187-.3486-.6512-.9166-1.1661-1.6087-1.4585-.158-.6967-.5561-1.3198-1.1282-1.766l-2.0168-.6869h-.2271c-.4486-.6369-1.1221-1.0913-1.8924-1.2767l-3.4908-.2366c-.7188.0582-1.3965.3499-1.9242.8283-.2494-.0572-.5045-.0868-.7607-.0884-.6203.0013-1.227.1772-1.7467.5066-.5198.3293-.9306.7981-1.1826 1.3496l-1.643 1.1326c-.4088.5391-.6289 1.1917-.6278 1.8616-.004.2802.0342.5594.1135.8287-.431.5443-.6628 1.2132-.6585 1.9004-.001.797.3119 1.5641.8743 2.1434.0454.5706.2502 1.1183.5925 1.5837.3422.4655.8087.831 1.349 1.057.6226.3798 1.1497.8906 1.5427 1.4948s.5552 1.2865.6415 1.9966h3.43v-3.3146c-.0008-.5886.1679-1.1655.487-1.6655.3191-.4999.4979-.9028 1.0404-1.163.5083-.1893.9662-.4877 1.3397-.8729.532.3535 1.1612.5425 1.8053.5425z"/><path d="m32.3333 25.2501c0 .6903-.5597 1.25-1.25 1.25-.6904 0-1.25-.5597-1.25-1.25 0-.6904.5596-1.25 1.25-1.25.6903 0 1.25.5596 1.25 1.25z"/><g clip-rule="evenodd" fill-rule="evenodd"><path d="m21.5 32.3333h-3.3333v-2h3.3333z"/><path d="m21.5 35.6666h-3.3333v-2h3.3333z"/><path d="m21.5 39.0001h-3.3333v-2h3.3333z"/></g></g></svg>

<svg width="48" height="48" viewBox="0 0 48 48" fill="none" xmlns="http://www.w3.org/2000/svg">
<path fill-rule="evenodd" clip-rule="evenodd" d="M9 6C7.34315 6 6 7.34315 6 9V39C6 40.6569 7.34315 42 9 42H14.389V30.762C11.3452 28.4871 9 25.4224 9 21.4498C9 18.1479 10.3779 14.9813 12.8307 12.6465C15.2834 10.3117 18.61 9.00001 22.0787 9.00001C24.7275 8.99715 27.345 9.54568 29.7476 10.6072C31.6411 11.3662 33.2989 12.5741 34.563 14.1157C35.7174 15.7353 36.3572 17.6371 36.4059 19.5936C36.4164 20.0433 36.4101 20.4697 36.404 20.8822C36.3825 22.3386 36.3635 23.6212 37.0955 25.1382C37.0955 25.1382 39.2594 27.0849 38.9741 28.6468C38.6887 30.2087 35.8708 30.6387 35.8708 30.6387C35.8708 39.048 25.1701 35.5382 25.1701 35.5382V42H39C40.6569 42 42 40.6569 42 39V9C42 7.34315 40.6569 6 39 6H9Z" fill="#333333"/>
<path d="M26.2691 22.4547C26.9132 22.4547 26.709 22.2657 27.241 21.9122C27.7811 22.265 28.4186 22.4499 29.069 22.4426L31.1352 21.7109C31.7174 21.2438 32.1171 20.5963 32.2674 19.8767C32.4176 19.1571 32.3094 18.4092 31.9607 17.758C31.6121 17.1068 31.0441 16.5919 30.352 16.2995C30.194 15.6028 29.7959 14.9797 29.2238 14.5335L27.207 13.8466H26.9799C26.5313 13.2097 25.8578 12.7553 25.0875 12.5699L21.5967 12.3333C20.8779 12.3915 20.2002 12.6832 19.6725 13.1616C19.4231 13.1044 19.168 13.0748 18.9118 13.0732C18.2915 13.0745 17.6848 13.2504 17.1651 13.5798C16.6453 13.9091 16.2345 14.3779 15.9825 14.9294L14.3395 16.062C13.9307 16.6011 13.7106 17.2537 13.7117 17.9236C13.7077 18.2038 13.7459 18.483 13.8252 18.7523C13.3942 19.2966 13.1624 19.9655 13.1667 20.6527C13.1657 21.4497 13.4786 22.2168 14.041 22.7961C14.0864 23.3667 14.2912 23.9144 14.6335 24.3798C14.9757 24.8453 15.4422 25.2108 15.9825 25.4368C16.6051 25.8166 17.1322 26.3274 17.5252 26.9316C17.9182 27.5358 18.0804 28.2181 18.1667 28.9282H21.5967V25.6136C21.5959 25.025 21.7646 24.4481 22.0837 23.9481C22.4028 23.4482 22.5816 23.0453 23.1241 22.7851C23.6324 22.5958 24.0903 22.2974 24.4638 21.9122C24.9958 22.2657 25.625 22.4547 26.2691 22.4547Z" fill="#333333"/>
<path d="M32.3333 25.2501C32.3333 25.9404 31.7736 26.5001 31.0833 26.5001C30.3929 26.5001 29.8333 25.9404 29.8333 25.2501C29.8333 24.5597 30.3929 24.0001 31.0833 24.0001C31.7736 24.0001 32.3333 24.5597 32.3333 25.2501Z" fill="#333333"/>
<path fill-rule="evenodd" clip-rule="evenodd" d="M21.5 32.3333H18.1667V30.3333H21.5V32.3333Z" fill="#333333"/>
<path fill-rule="evenodd" clip-rule="evenodd" d="M21.5 35.6666H18.1667V33.6666H21.5V35.6666Z" fill="#333333"/>
<path fill-rule="evenodd" clip-rule="evenodd" d="M21.5 39.0001H18.1667V37.0001H21.5V39.0001Z" fill="#333333"/>
</svg>
